X: 10
T: 10. Aus tiefer Not schrei ich zu dir
N: Derived from chor010.krn
C: Johann Sebastian Bach
%%abc-version 2.0
%%abcx-abcm2ps-target-version 5.9.1 (29 Sep 2008)
%%abc-creator hum2abc beta
%%abcx-conversion-date 2019/03/11 17:28:17
%%abc-edited-by Craig Stuart Sapp
%%humdrum-veritas 2045868085
%%humdrum-veritas-data 1251519058
%%
%%barnumbers 0
L: 1/4
M: C
%%staves [1 2 3 4]
V: 1 clef=treble
V: 2 clef=treble
V: 3 clef=treble-8
V: 4 clef=bass
K: C
[V:1] B2EB | 
[V:2] E2E^G | 
[V:3] ^G2Ad | 
[V:4] D,2C,B,, | 
[V:1] cB/A/GA | 
[V:2] A=G/^F/EF | 
[V:3] ede/d/c | 
[V:4] A,,B,,C,/B,,/A,, | 
[V:1] !fermata!B2B2 | 
[V:2] !fermata!^G2G2 | 
[V:3] !fermata!B2e2 | 
[V:4] !fermata!E,2E,2 | 
[V:1] cdc/B/A | 
[V:2] ABcF | 
[V:3] efgc | 
[V:4] A,G,/F,/E,F, | 
[V:1] GF!fermata!E2 :|]  
[V:2] ED/C/!fermata!B,2 :|]  
[V:3] c/B/A!fermata!^G2 :|]  
[V:4] C,D,!fermata!E,2 :|]  
[V:1] A2=Gc | 
[V:2] E2DE/^F/ | 
[V:3] A2Bc | 
[V:4] C2B,A, | 
[V:1] BAd/c/B | 
[V:2] GAB/A/^G | 
[V:3] dd/e/fB | 
[V:4] G,=F,/E,/D,E, | 
[V:1] !fermata!A2c2 | 
[V:2] !fermata!E2A2 | 
[V:3] !fermata!c2e2 | 
[V:4] !fermata!A,,2A,2 | 
[V:1] BcdG | 
[V:2] GGG/F/E | 
[V:3] eedc | 
[V:4] E,D,/C,/B,,C, | 
[V:1] BA!fermata!G2 | 
[V:2] DC!fermata!B,2 | 
[V:3] ^F/G^F/!fermata!G2 | 
[V:4] D,D,!fermata!G,,2 | 
[V:1] G2cB | 
[V:2] E2EE/D/ | 
[V:3] G2A^G | 
[V:4] C,2A,,E, | 
[V:1] AEGF | 
[V:2] CCD2- | 
[V:3] AGGA | 
[V:4] F,C,_B,,A,, | 
[V:1] !fermata!E4 |]  
[V:2] DC!fermata!B,2 |]  
[V:3] BA!fermata!^G2 |]  
[V:4] ^G,,A,,!fermata!E,,2 |]  



